brandFactory_export/1.Light/Monumento_1Light.svg

<?xml version="1.0" encoding="UTF-8"?>
<svg width="24px" height="24px" viewBox="0 0 24 24" version="1.1" xmlns="http://www.w3.org/2000/svg" xmlns:xlink="http://www.w3.org/1999/xlink">
    <title>1.Light/Monumento_1Light</title>
    <g id="Symbols" stroke="none" stroke-width="1" fill="none" fill-rule="evenodd">
        <g id="1.Light/Monumento_1Light" fill="#5CB615" fill-rule="nonzero">
            <path d="M6.03865546,22.6184874 L17.7697479,22.6184874 L17.7697479,20.4 L6.03865546,20.4 L6.03865546,22.6184874 Z M7.77647059,19.3915966 L16.0352941,19.3915966 L16.0352941,17.5865546 L7.77647059,17.5865546 L7.77647059,19.3915966 Z M9.20504202,16.5210084 L10.1932773,8.07394958 L13.7294118,8.07394958 L14.7176471,16.5210084 C14.7210084,16.5445378 14.7310924,16.5613445 14.7378151,16.5815126 L9.18487395,16.5815126 C9.19159664,16.5613445 9.20168067,16.5411765 9.20504202,16.5210084 Z M9.1512605,7.06890756 L14.7714286,7.06890756 L14.7714286,5.40504202 L9.1512605,5.40504202 L9.1512605,7.06890756 Z M7.02689076,1.00504202 L8.25378151,1.00504202 L8.25378151,2.38655462 C8.25378151,2.66554622 8.48235294,2.8907563 8.76470588,2.8907563 L10.8722689,2.8907563 C11.1546218,2.8907563 11.3831933,2.66554622 11.3831933,2.38655462 L11.3831933,1.00504202 L12.3142857,1.00504202 L12.3142857,2.48403361 C12.3142857,2.61848739 12.3680672,2.74957983 12.4655462,2.84369748 C12.5630252,2.93781513 12.6773109,2.97815126 12.8319328,2.98823529 L14.9798319,2.95462185 C15.2588235,2.9512605 15.4840336,2.72605042 15.4840336,2.45042017 L15.4840336,1.00168067 L16.805042,1.00168067 L16.805042,4.39327731 L7.02689076,4.39327731 L7.02689076,1.00504202 Z M18.2806723,19.3915966 L17.0571429,19.3915966 L17.0571429,17.0823529 C17.0571429,16.8033613 16.8285714,16.5781513 16.5462185,16.5781513 L15.7193277,16.5781513 C15.7361345,16.5210084 15.7428571,16.4638655 15.7361345,16.4033613 L14.7613445,8.07058824 L15.2823529,8.07058824 C15.5647059,8.07058824 15.7932773,7.84537815 15.7932773,7.56638655 L15.7932773,5.39831933 L17.3226891,5.39831933 C17.605042,5.39831933 17.8336134,5.17310924 17.8336134,4.89411765 L17.8336134,0.504201681 C17.8336134,0.225210084 17.605042,0 17.3226891,0 L14.9764706,0 C14.6941176,0 14.4655462,0.225210084 14.4655462,0.504201681 L14.4655462,1.95966387 L13.3428571,1.97647059 L13.3428571,0.504201681 C13.3428571,0.225210084 13.1142857,0 12.8319328,0 L10.8789916,0 C10.5966387,0 10.3680672,0.225210084 10.3680672,0.504201681 L10.3680672,1.88907563 L9.28235294,1.88907563 L9.28235294,0.504201681 C9.28235294,0.225210084 9.05378151,0 8.77142857,0 L6.51932773,0 C6.23697479,0 6.00840336,0.225210084 6.00840336,0.504201681 L6.00840336,4.90084034 C6.00840336,5.17983193 6.23697479,5.40504202 6.51932773,5.40504202 L8.12605042,5.40504202 L8.12605042,7.57310924 C8.12605042,7.85210084 8.35462185,8.07731092 8.63697479,8.07731092 L9.16134454,8.07731092 L8.18655462,16.410084 C8.17983193,16.4705882 8.18655462,16.5310924 8.2,16.5848739 L7.26218487,16.5848739 C6.97983193,16.5848739 6.7512605,16.810084 6.7512605,17.0890756 L6.7512605,19.3983193 L5.52773109,19.3983193 C5.24537815,19.3983193 5.01680672,19.6235294 5.01680672,19.902521 L5.01680672,23.1294118 C5.01680672,23.4084034 5.24537815,23.6336134 5.52773109,23.6336134 L18.2840336,23.6336134 C18.5663866,23.6336134 18.794958,23.4084034 18.794958,23.1294118 L18.794958,19.902521 C18.794958,19.6168067 18.5663866,19.3915966 18.2806723,19.3915966 L18.2806723,19.3915966 Z" id="Monumento_1Light"></path>
        </g>
    </g>
</svg>

<svg width="24" height="24" viewBox="0 0 24 24" xmlns="http://www.w3.org/2000/svg"><path d="M6.039 22.618h11.73V20.4H6.04v2.218zm1.737-3.226h8.26v-1.805h-8.26v1.805zm1.429-2.871l.988-8.447h3.536l.989 8.447c.003.024.013.04.02.06H9.185c.007-.02.017-.04.02-.06zm-.054-9.452h5.62V5.405h-5.62v1.664zM7.027 1.005h1.227v1.382c0 .279.228.504.51.504h2.108c.283 0 .511-.225.511-.504V1.005h.931v1.479a.5.5 0 00.152.36.54.54 0 00.366.144l2.148-.033a.508.508 0 00.504-.505V1.002h1.321v3.391H7.027V1.005zM18.28 19.392h-1.224v-2.31a.507.507 0 00-.51-.504h-.828c.017-.057.024-.114.017-.175l-.975-8.332h.521c.283 0 .511-.226.511-.505V5.398h1.53c.282 0 .51-.225.51-.504V.504a.507.507 0 00-.51-.504h-2.347a.507.507 0 00-.51.504V1.96l-1.123.016V.504A.507.507 0 0012.832 0h-1.953a.507.507 0 00-.51.504V1.89H9.281V.504A.507.507 0 008.772 0H6.518a.507.507 0 00-.51.504v4.397c0 .279.228.504.51.504h1.607v2.168c0 .28.229.504.511.504h.524l-.974 8.333a.5.5 0 00.013.175h-.938a.507.507 0 00-.51.504v2.31H5.527a.507.507 0 00-.511.504v3.226c0 .28.228.505.51.505h12.757c.282 0 .511-.226.511-.505v-3.226a.51.51 0 00-.514-.511z" fill="#5CB615" fill-rule="nonzero"/></svg>
